X: 1
T: All the Small things
Z: Lava
M: 4/4
L: 1/8
Q:1/4=152
K:C
z8|z8|z8|z8|
z8|z8|z8|z8|
z8|z4 E2 C2|z4 B,2 C2|z4 E2 C2|
z4 B,2 C2|z4 E2 C2|z4 B,2 C2|z4 E2 C2|
z4 B,2 C2|z4 E2 F2|z4 E2 C2|z4 E2 C2|
z2 G,2 B,2 C2|z4 E2 C2|z4 B,2 C2|z4 E2 C2|
z2 G,2 B,2 C2|z4 EE E2|E2 z2 EF E2|D2 z2 DE D2|
C2 z2 FF F2|CE2E E2 EE-|EC C2 C2 C2|DD2D D2 DF-|
FC C2 C2 C2|EE2E E2 EE-|EC C2 C2 C2|DD2D D2 DF-|
FC C2 C2 C2|z8|z8|z8|
z8|z8|z8|z8|
z8|z4 E2 C2|z4 B,2 C2|z4 E2 C2|
z4 B,2 C2|z3C C2 E2|F2 E2 D2 EC-|C2 z4 zC|
B,B, B,B, B,B, B,C|z4 EE E2|E2 z2 EF E2|D2 z2 DE D2|
C2 z2 FF F2|CE2E E2 EE-|EC C2 C2 C2|DD2D D2 DF-|
FC C2 C2 C2|EE2E E2 EE-|EC C2 C2 C2|DD2D D2 DF-|
FC C2 C2 C2|z8|z8|z8|
z8|z8|z8|z8|
z8|z8|z8|z8|
z8|z8|z8|z8|
z8|z4 EE E2|E2 z2 EF E2|D2 z2 DE D2|
C2 z2 FF F2|C2 z2 EE E2|E2 z2 EF E2|D2 z2 DE D2|
C2 z2 FF F2|C2 z2 EE E2|E2 z2 EF E2|D2 z2 DE D2|
C2 z2 FF F2|C2 z2 EE E2|E2 z2 EF E2|D2 z2 DE D2|
C2 z2 DE D2|C2 z2 FF E2|C8-|C8-|
C8-|C6- C
